icons/id-circle.svg

<svg xmlns="http://www.w3.org/2000/svg" viewBox="0 0 24 24" fill="currentColor">
  <path d="M3.75 9c0-1.28579.96421-2.25 2.25-2.25h12c1.2858 0 2.25.96421 2.25 2.25v6c0 1.1858-1.0642 2.25-2.25 2.25H6c-1.28579 0-2.25-.9642-2.25-2.25V9ZM6 5.25C3.88579 5.25 2.25 6.88579 2.25 9v6c0 2.1142 1.63579 3.75 3.75 3.75h12c2.0142 0 3.75-1.7358 3.75-3.75V9c0-2.11421-1.6358-3.75-3.75-3.75H6ZM7.25 12c0-.9665.7835-1.75 1.75-1.75s1.75.7835 1.75 1.75-.7835 1.75-1.75 1.75-1.75-.7835-1.75-1.75ZM9 8.75c-1.79493 0-3.25 1.4551-3.25 3.25S7.20507 15.25 9 15.25c1.7949 0 3.25-1.4551 3.25-3.25S10.7949 8.75 9 8.75Zm4.75 1.75c0-.4142.3358-.75.75-.75h3c.4142 0 .75.3358.75.75s-.3358.75-.75.75h-3c-.4142 0-.75-.3358-.75-.75Zm.75 2.25c-.4142 0-.75.3358-.75.75s.3358.75.75.75h3c.4142 0 .75-.3358.75-.75s-.3358-.75-.75-.75h-3Z"/>
</svg>

<svg width="24" height="24" viewBox="0 0 24 24" fill="none" xmlns="http://www.w3.org/2000/svg">
<path fill-rule="evenodd" clip-rule="evenodd" d="M3.75 9C3.75 7.71421 4.71421 6.75 6 6.75H18C19.2858 6.75 20.25 7.71421 20.25 9V15C20.25 16.1858 19.1858 17.25 18 17.25H6C4.71421 17.25 3.75 16.2858 3.75 15V9ZM6 5.25C3.88579 5.25 2.25 6.88579 2.25 9V15C2.25 17.1142 3.88579 18.75 6 18.75H18C20.0142 18.75 21.75 17.0142 21.75 15V9C21.75 6.88579 20.1142 5.25 18 5.25H6ZM7.25 12C7.25 11.0335 8.0335 10.25 9 10.25C9.9665 10.25 10.75 11.0335 10.75 12C10.75 12.9665 9.9665 13.75 9 13.75C8.0335 13.75 7.25 12.9665 7.25 12ZM9 8.75C7.20507 8.75 5.75 10.2051 5.75 12C5.75 13.7949 7.20507 15.25 9 15.25C10.7949 15.25 12.25 13.7949 12.25 12C12.25 10.2051 10.7949 8.75 9 8.75ZM13.75 10.5C13.75 10.0858 14.0858 9.75 14.5 9.75H17.5C17.9142 9.75 18.25 10.0858 18.25 10.5C18.25 10.9142 17.9142 11.25 17.5 11.25H14.5C14.0858 11.25 13.75 10.9142 13.75 10.5ZM14.5 12.75C14.0858 12.75 13.75 13.0858 13.75 13.5C13.75 13.9142 14.0858 14.25 14.5 14.25H17.5C17.9142 14.25 18.25 13.9142 18.25 13.5C18.25 13.0858 17.9142 12.75 17.5 12.75H14.5Z" fill="black"/>
</svg>
